alura/assets/api/cursos/dados-26-02.svg

<svg width="50" height="50" viewBox="0 0 50 50" fill="none" xmlns="http://www.w3.org/2000/svg">
<path d="M46.6999 2.87012H2.6499V20.6701L46.6999 5.00012V2.87012Z" fill="#00DFFC"/>
<path d="M2.79 20.2598L2 44.2998L46.84 28.3498V4.58984L2.79 20.2598Z" fill="#00C8E2"/>
<path d="M24.6801 9.06006C20.6401 9.06006 17.3701 12.3301 17.3701 16.3701C17.3701 20.4101 20.6401 23.6801 24.6801 23.6801C28.7201 23.6801 31.9901 20.4101 31.9901 16.3701C31.9901 12.3401 28.7201 9.06006 24.6801 9.06006ZM22.7201 19.9701V12.7901C23.0501 12.9801 28.6001 16.1801 28.9501 16.3801C28.6101 16.5801 23.0701 19.7701 22.7201 19.9701Z" fill="#444444"/>
<path d="M21.3899 31.0702H38.7499M36.3299 29.4902V32.6502" stroke="#444444" stroke-width="0.5" stroke-miterlimit="10" stroke-linecap="round" stroke-linejoin="round"/>
<path d="M34.0101 38.3199H20.9501H22.4001C22.4001 38.3199 20.1701 40.9999 18.8201 41.9299C17.4701 42.8599 15.1101 45.1899 15.1101 45.1899C15.1101 45.1899 10.4001 49.8599 5.24007 46.6099C2.15007 44.6599 1.98007 42.8799 1.82007 41.4299C1.76007 40.8499 1.93007 39.7799 2.05007 39.2099L2.47007 37.1199L2.54007 35.9399L2.30007 3.35994C2.30007 2.43994 3.05007 1.68994 3.97007 1.68994H45.3701C46.3001 1.68994 47.0501 2.43994 47.0501 3.36994V31.0799" stroke="#444444" stroke-width="2.5" stroke-miterlimit="10" stroke-linecap="round"/>
<path d="M14.0601 31.17C13.2201 29.85 11.2301 30.17 10.8101 31.72L10.7201 32.06C9.94011 30.82 7.94011 30.93 7.51011 32.53C6.47011 31.72 5.01011 32.29 4.68011 33.53C4.70011 33.46 3.31011 38.66 3.17011 39.17C1.59011 45.06 8.04011 46.45 8.03011 46.43C10.5401 47.1 12.9901 45.58 14.4801 44.16C15.8101 42.9 17.1901 41.7 18.6601 40.61C20.1401 39.5 21.4401 38.2 20.7401 36.99C19.5101 34.86 15.9401 37.9 15.9401 37.9L18.7301 27.51C18.9901 26.55 18.4101 25.56 17.4401 25.32C16.5001 25.09 15.5201 25.72 15.2701 26.65L14.0601 31.17ZM14.0601 31.17L13.3801 33.71M10.0401 34.61L10.7301 32.05M6.72011 35.5L7.52011 32.53" stroke="#444444" stroke-width="0.25" stroke-miterlimit="10"/>
<path d="M20.14 39.4898L21.09 38.9198L20.73 39.0498L21.05 38.3198L20 39.6098C20.2 39.1198 20.95 38.9998 20.95 38.9998" stroke="#444444" stroke-width="0.25" stroke-miterlimit="10" stroke-linecap="round" stroke-linejoin="round"/>
</svg>

<svg xmlns="http://www.w3.org/2000/svg" fill="none" viewBox="0 0 50 50"><path fill="#00DFFC" d="M46.7 2.87H2.65v17.8L46.7 5V2.87z"/><path fill="#00C8E2" d="M2.79 20.26L2 44.3l44.84-15.95V4.59L2.79 20.26z"/><path fill="#444" d="M24.68 9.06c-4.04 0-7.31 3.27-7.31 7.31 0 4.04 3.27 7.31 7.31 7.31 4.04 0 7.31-3.27 7.31-7.31 0-4.03-3.27-7.31-7.31-7.31zm-1.96 10.91v-7.18c.33.19 5.88 3.39 6.23 3.59-.34.2-5.88 3.39-6.23 3.59z"/><path stroke="#444" stroke-linecap="round" stroke-linejoin="round" stroke-miterlimit="10" stroke-width=".5" d="M21.39 31.07h17.36m-2.42-1.58v3.16"/><path stroke="#444" stroke-linecap="round" stroke-miterlimit="10" stroke-width="2.5" d="M34.01 38.32H20.95h1.45s-2.23 2.68-3.58 3.61c-1.35.93-3.71 3.26-3.71 3.26s-4.71 4.67-9.87 1.42c-3.09-1.95-3.26-3.73-3.42-5.18-.06-.58.11-1.65.23-2.22l.42-2.09.07-1.18L2.3 3.36c0-.92.75-1.67 1.67-1.67h41.4c.93 0 1.68.75 1.68 1.68v27.71"/><path stroke="#444" stroke-miterlimit="10" stroke-width=".25" d="M14.06 31.17c-.84-1.32-2.83-1-3.25.55l-.09.34c-.78-1.24-2.78-1.13-3.21.47-1.04-.81-2.5-.24-2.83 1 .02-.07-1.37 5.13-1.51 5.64-1.58 5.89 4.87 7.28 4.86 7.26 2.51.67 4.96-.85 6.45-2.27 1.33-1.26 2.71-2.46 4.18-3.55 1.48-1.11 2.78-2.41 2.08-3.62-1.23-2.13-4.8.91-4.8.91l2.79-10.39c.26-.96-.32-1.95-1.29-2.19-.94-.23-1.92.4-2.17 1.33l-1.21 4.52zm0 0l-.68 2.54m-3.34.9l.69-2.56M6.72 35.5l.8-2.97"/><path stroke="#444" stroke-linecap="round" stroke-linejoin="round" stroke-miterlimit="10" stroke-width=".25" d="M20.14 39.49l.95-.57-.36.13.32-.73L20 39.61c.2-.49.95-.61.95-.61"/></svg>
